X:2
T:By the Border Side as I did Pass
M:6/8
L:1/8
S:Ashmolean manuscripts (Nos. 46 & 37, article 128)
K:A Minor
A/A/|A2A A2G|A2c E3|GGG G2E|G2E G2G|
A2A A2G|A2c E2E|EFD E2E|A3 A2||

